svg/transport/charging_pile_line.svg

<?xml version="1.0" encoding="UTF-8"?>
<svg width="24px" height="24px" viewBox="0 0 24 24" version="1.1" xmlns="http://www.w3.org/2000/svg" xmlns:xlink="http://www.w3.org/1999/xlink">
    <title>charging_pilen_line</title>
    <g id="页面-1" stroke="none" stroke-width="1" fill="none" fill-rule="evenodd">
        <g id="Transport" transform="translate(-528.000000, 0.000000)">
            <g id="charging_pilen_line" transform="translate(528.000000, 0.000000)">
                 <path d="M24,0 L24,24 L0,24 L0,0 L24,0 Z M12.5934901,23.257841 L12.5819402,23.2595131 L12.5108777,23.2950439 L12.4918791,23.2987469 L12.4918791,23.2987469 L12.4767152,23.2950439 L12.4056548,23.2595131 C12.3958229,23.2563662 12.3870493,23.2590235 12.3821421,23.2649074 L12.3780323,23.275831 L12.360941,23.7031097 L12.3658947,23.7234994 L12.3769048,23.7357139 L12.4804777,23.8096931 L12.4953491,23.8136134 L12.4953491,23.8136134 L12.5071152,23.8096931 L12.6106902,23.7357139 L12.6232938,23.7196733 L12.6232938,23.7196733 L12.6266527,23.7031097 L12.609561,23.275831 C12.6075724,23.2657013 12.6010112,23.2592993 12.5934901,23.257841 L12.5934901,23.257841 Z M12.8583906,23.1452862 L12.8445485,23.1473072 L12.6598443,23.2396597 L12.6498822,23.2499052 L12.6498822,23.2499052 L12.6471943,23.2611114 L12.6650943,23.6906389 L12.6699349,23.7034178 L12.6699349,23.7034178 L12.678386,23.7104931 L12.8793402,23.8032389 C12.8914285,23.8068999 12.9022333,23.8029875 12.9078286,23.7952264 L12.9118235,23.7811639 L12.8776777,23.1665331 C12.8752882,23.1545897 12.8674102,23.1470016 12.8583906,23.1452862 L12.8583906,23.1452862 Z M12.1430473,23.1473072 C12.1332178,23.1423925 12.1221763,23.1452606 12.1156365,23.1525954 L12.1099173,23.1665331 L12.0757714,23.7811639 C12.0751323,23.7926639 12.0828099,23.8018602 12.0926481,23.8045676 L12.108256,23.8032389 L12.3092106,23.7104931 L12.3186497,23.7024347 L12.3186497,23.7024347 L12.3225043,23.6906389 L12.340401,23.2611114 L12.337245,23.2485176 L12.337245,23.2485176 L12.3277531,23.2396597 L12.1430473,23.1473072 Z" id="MingCute" fill-rule="nonzero"></path>
                <path d="M9.44721,7.10557 C9.94119,7.35256 10.1414,7.95324 9.89443,8.44721 L8.61803,11 L10.9838,11 C11.7346,11 12.223,11.7901 11.8872,12.4617 L9.89443,16.4472 C9.64744,16.9412 9.04676,17.1414 8.55279,16.8944 C8.05881,16.6474 7.85858,16.0468 8.10557,15.5528 L9.38197,13 L7.01618,13 C6.26534,13 5.77704,12.2098 6.11281,11.5383 L8.10557,7.55279 C8.35256,7.05881 8.95324,6.85858 9.44721,7.10557 Z" id="路径" fill="#09244B" fill-rule="nonzero"></path>
                <path d="M3,5 C3,3.89543 3.89543,3 5,3 L13,3 C14.1046,3 15,3.89543 15,5 L15,12 L16,12 C17.1046,12 18,12.8954 18,14 L18,16.5 C18,16.7761 18.2239,17 18.5,17 C18.7761,17 19,16.7761 19,16.5 L19,10.4142 L17.75,9.16421 L17.7071,9.20711 C17.3166,9.59763 16.6834,9.59763 16.2929,9.20711 C15.9024,8.81658 15.9024,8.18342 16.2929,7.79289 L16.3358,7.75 L16.2929,7.70711 C15.9024,7.31658 15.9024,6.68342 16.2929,6.29289 C16.6834,5.90237 17.3166,5.90237 17.7071,6.29289 L20.4142,9 C20.7893,9.37507 21,9.88378 21,10.4142 L21,16.5 C21,17.8807 19.8807,19 18.5,19 C17.1193,19 16,17.8807 16,16.5 L16,14 L15,14 L15,19 C15.5523,19 16,19.4477 16,20 C16,20.5523 15.5523,21 15,21 L3,21 C2.44772,21 2,20.5523 2,20 C2,19.4477 2.44772,19 3,19 L3,5 Z M13,5 L13,19 L5,19 L5,5 L13,5 Z" id="形状" fill="#09244B"></path>
            </g>
        </g>
    </g>
</svg>

<svg xmlns="http://www.w3.org/2000/svg" width="24" height="24"><g fill="none" fill-rule="evenodd"><path d="M24 0v24H0V0h24ZM12.593 23.258l-.011.002-.071.035-.02.004-.014-.004-.071-.035c-.01-.004-.019-.001-.024.005l-.004.01-.017.428.005.02.01.013.104.074.015.004.012-.004.104-.074.012-.016.004-.017-.017-.427c-.002-.01-.009-.017-.017-.018Zm.265-.113-.013.002-.185.093-.01.01-.003.011.018.43.005.012.008.007.201.093c.012.004.023 0 .029-.008l.004-.014-.034-.614c-.003-.012-.01-.02-.02-.022Zm-.715.002a.023.023 0 0 0-.027.006l-.006.014-.034.614c0 .012.007.02.017.024l.015-.002.201-.093.01-.008.004-.011.017-.43-.003-.012-.01-.01-.184-.092Z"/><path fill="#09244B" fill-rule="nonzero" d="M9.447 7.106a1 1 0 0 1 .447 1.341L8.618 11h2.366c.75 0 1.239.79.903 1.462l-1.993 3.985a1 1 0 1 1-1.788-.894L9.382 13H7.016c-.75 0-1.239-.79-.903-1.462l1.993-3.985a1 1 0 0 1 1.341-.447Z"/><path fill="#09244B" d="M3 5a2 2 0 0 1 2-2h8a2 2 0 0 1 2 2v7h1a2 2 0 0 1 2 2v2.5a.5.5 0 0 0 1 0v-6.086l-1.25-1.25-.043.043a1 1 0 1 1-1.414-1.414l.043-.043-.043-.043a1 1 0 0 1 1.414-1.414L20.414 9A2 2 0 0 1 21 10.414V16.5a2.5 2.5 0 0 1-5 0V14h-1v5a1 1 0 1 1 0 2H3a1 1 0 1 1 0-2V5Zm10 0v14H5V5h8Z"/></g></svg>
